packages/core/src/svgs/tokens/branded/DODO.svg

<svg width="24" height="24" viewBox="0 0 24 24" fill="none" xmlns="http://www.w3.org/2000/svg">
<path fill-rule="evenodd" clip-rule="evenodd" d="M10.0236 3.91881C9.69414 4.60116 10.0176 5.34823 10.4824 5.95411C4.44117 6.83645 3.38824 12.5012 3.17647 15.8247H5.52941C5.67058 12.8835 7.05882 8.4541 11.9882 8.4541C16.9176 8.4541 18.3118 12.8835 18.447 15.8247H20.8C20.9883 12.8188 19.9412 7.03646 14.1 6.00116C14.4117 5.25998 14.6294 4.2247 14.2823 3.91881C13.8705 3.54822 13.4 3.97764 13.2117 4.23057C13.1823 3.55999 12.9294 2.23058 12.1941 2.29528C11.4529 2.36587 11.2352 3.70704 11.2236 4.37764C10.6235 3.45998 10.1765 3.6894 10.0236 3.91881ZM9.64706 12.2953C9.64706 12.1393 9.70896 11.9896 9.81932 11.8793C9.92967 11.7691 10.0793 11.707 10.2353 11.707C10.3913 11.707 10.5409 11.7691 10.6512 11.8793C10.7616 11.9896 10.8235 12.1393 10.8235 12.2953V12.8835C10.8235 13.0395 10.7616 13.1891 10.6512 13.2995C10.5409 13.4098 10.3913 13.4717 10.2353 13.4717C10.0793 13.4717 9.92967 13.4098 9.81932 13.2995C9.70896 13.1891 9.64706 13.0395 9.64706 12.8835V12.2953ZM13.7647 11.707C13.4412 11.707 13.1764 11.9306 13.1764 12.2071V12.9717C13.1764 13.2483 13.4412 13.4717 13.7647 13.4717C14.0882 13.4717 14.353 13.2483 14.353 12.9717V12.2071C14.353 11.9306 14.0882 11.707 13.7647 11.707ZM3.84118 17.0011H2V21.707H3.84118C5.1 21.707 6.11765 20.6482 6.11765 19.3541C6.11765 18.06 5.1 17.0011 3.84118 17.0011ZM3.56471 18.1776H3.17647V20.5306H3.56471C4.31176 20.5306 4.94117 20.1247 4.94117 19.3541C4.94117 18.5835 4.31176 18.1776 3.56471 18.1776ZM12.5883 17.0011H14.4294C15.6882 17.0011 16.7059 18.06 16.7059 19.3541C16.7059 20.6482 15.6882 21.707 14.4294 21.707H12.5883V17.0011ZM13.7647 18.1776H14.153C14.8999 18.1776 15.5294 18.5835 15.5294 19.3541C15.5294 20.1247 14.8999 20.5306 14.153 20.5306H13.7647V18.1776ZM9.05881 21.707C9.68288 21.707 10.2813 21.4591 10.7226 21.0179C11.1639 20.5766 11.4117 19.9782 11.4117 19.3541C11.4117 18.7301 11.1639 18.1315 10.7226 17.6904C10.2813 17.2491 9.68288 17.0011 9.05881 17.0011C8.43478 17.0011 7.8363 17.2491 7.39504 17.6904C6.95378 18.1315 6.70588 18.7301 6.70588 19.3541C6.70588 19.9782 6.95378 20.5766 7.39504 21.0179C7.8363 21.4591 8.43478 21.707 9.05881 21.707ZM9.05881 20.5306C9.3709 20.5306 9.67012 20.4067 9.89069 20.186C10.1114 19.9654 10.2353 19.6662 10.2353 19.3541C10.2353 19.0421 10.1114 18.7429 9.89069 18.5222C9.67012 18.3016 9.3709 18.1776 9.05881 18.1776C8.74681 18.1776 8.44756 18.3016 8.22693 18.5222C8.0063 18.7429 7.88235 19.0421 7.88235 19.3541C7.88235 19.6662 8.0063 19.9654 8.22693 20.186C8.44756 20.4067 8.74681 20.5306 9.05881 20.5306ZM22 19.3541C22 19.9782 21.7521 20.5766 21.3108 21.0179C20.8696 21.4591 20.2711 21.707 19.647 21.707C19.0231 21.707 18.4245 21.4591 17.9832 21.0179C17.542 20.5766 17.2941 19.9782 17.2941 19.3541C17.2941 18.7301 17.542 18.1315 17.9832 17.6904C18.4245 17.2491 19.0231 17.0011 19.647 17.0011C20.2711 17.0011 20.8696 17.2491 21.3108 17.6904C21.7521 18.1315 22 18.7301 22 19.3541ZM20.8236 19.3541C20.8236 19.6662 20.6995 19.9654 20.4789 20.186C20.2584 20.4067 19.959 20.5306 19.647 20.5306C19.3351 20.5306 19.0358 20.4067 18.8151 20.186C18.5946 19.9654 18.4706 19.6662 18.4706 19.3541C18.4706 19.0421 18.5946 18.7429 18.8151 18.5222C19.0358 18.3016 19.3351 18.1776 19.647 18.1776C19.959 18.1776 20.2584 18.3016 20.4789 18.5222C20.6995 18.7429 20.8236 19.0421 20.8236 19.3541Z" fill="black"/>
</svg>

<svg xmlns="http://www.w3.org/2000/svg" width="24" height="24" fill="none" viewBox="0 0 24 24">
    <path fill="#000" fill-rule="evenodd" d="M10.024 3.919c-.33.682-.006 1.43.458 2.035-6.04.882-7.094 6.547-7.306 9.87H5.53c.142-2.94 1.53-7.37 6.46-7.37s6.323 4.43 6.458 7.37H20.8c.188-3.005-.859-8.788-6.7-9.823.312-.741.53-1.776.182-2.082-.412-.37-.882.059-1.07.312-.03-.671-.283-2-1.018-1.936-.741.07-.959 1.412-.97 2.083-.6-.918-1.047-.689-1.2-.46m-.377 8.376a.588.588 0 1 1 1.176 0v.588a.588.588 0 1 1-1.176 0zm4.118-.588c-.324 0-.589.224-.589.5v.765c0 .276.265.5.589.5s.588-.224.588-.5v-.765c0-.276-.265-.5-.588-.5M3.84 17.001H2v4.706h1.841c1.259 0 2.277-1.059 2.277-2.353S5.1 17.001 3.84 17.001m-.276 1.177h-.389v2.353h.389c.747 0 1.376-.406 1.376-1.177 0-.77-.63-1.176-1.376-1.176M12.588 17h1.841c1.26 0 2.277 1.059 2.277 2.353s-1.018 2.353-2.277 2.353h-1.84zm1.177 1.177h.388c.747 0 1.376.406 1.376 1.176s-.63 1.177-1.376 1.177h-.388zm-4.706 3.529a2.353 2.353 0 1 0 0-4.706 2.353 2.353 0 0 0 0 4.706m0-1.176a1.176 1.176 0 1 0 0-2.352 1.176 1.176 0 0 0 0 2.352M22 19.354a2.353 2.353 0 1 1-4.706 0 2.353 2.353 0 0 1 4.706 0m-1.176 0a1.177 1.177 0 1 1-2.353 0 1.177 1.177 0 0 1 2.353 0" clip-rule="evenodd"/>
</svg>
